src/symbolic/actions/selection-lower-symbolic.svg

<svg xmlns="http://www.w3.org/2000/svg" height="16" width="16"><path d="M11.451-.002a.489.489 0 0 0-.045.002.517.517 0 0 0-.406.5V4H9.5c-.369.011-.606.524-.375.813l2.5 3a.522.522 0 0 0 .75 0l2.5-3a.418.418 0 0 0 .09-.247c.013-.267-.188-.558-.465-.566H13V.5a.52.52 0 0 0-.5-.5h-1a.489.489 0 0 0-.049-.002zM.5 9c-.277 0-.5.223-.5.5v1c0 .277.223.5.5.5h15c.277 0 .5-.223.5-.5v-1c0-.277-.223-.5-.5-.5H.5z" style="marker:none;font-variant-east_asian:normal" fill="#5d656b"/><path d="M.5 1c-.277 0-.5.223-.5.5v1c0 .277.223.5.5.5h7c.277 0 .5-.223.5-.5v-1c0-.277-.223-.5-.5-.5h-7zm0 4c-.277 0-.5.223-.5.5v1c0 .277.223.5.5.5h7c.277 0 .5-.223.5-.5v-1c0-.277-.223-.5-.5-.5h-7zm0 8c-.277 0-.5.223-.5.5v1c0 .277.223.5.5.5h7c.277 0 .5-.223.5-.5v-1c0-.277-.223-.5-.5-.5h-7z" style="marker:none;font-variant-east_asian:normal" opacity=".5" fill="#555761"/></svg>

<?xml version="1.0" encoding="UTF-8" standalone="no"?>
<svg
   xmlns:dc="http://purl.org/dc/elements/1.1/"
   xmlns:cc="http://creativecommons.org/ns#"
   xmlns:rdf="http://www.w3.org/1999/02/22-rdf-syntax-ns#"
   xmlns:svg="http://www.w3.org/2000/svg"
   xmlns="http://www.w3.org/2000/svg"
   height="16"
   width="16"
   version="1.1"
   id="svg18">
  <metadata
     id="metadata24">
    <rdf:RDF>
      <cc:Work
         rdf:about="">
        <dc:format>image/svg+xml</dc:format>
        <dc:type
           rdf:resource="http://purl.org/dc/dcmitype/StillImage" />
        <dc:title></dc:title>
      </cc:Work>
    </rdf:RDF>
  </metadata>
  <defs
     id="defs22" />
  <path
     id="path846"
     d="M 11.451172 -0.001953125 A 0.489 0.489 0 0 0 11.40625 0 C 11.17725 0.044 10.996 0.267 11 0.5 L 11 4 L 9.5 4 C 9.131 4.011 8.894 4.5235 9.125 4.8125 L 11.625 7.8125 A 0.522 0.522 0 0 0 12.375 7.8125 L 14.875 4.8125 A 0.418 0.418 0 0 0 14.964844 4.5664062 C 14.977848 4.2994093 14.777 4.008 14.5 4 L 13 4 L 13 0.5 A 0.52 0.52 0 0 0 12.5 0 L 11.5 0 A 0.489 0.489 0 0 0 11.451172 -0.001953125 z M 0.5 9 C 0.223 9 0 9.223 0 9.5 L 0 10.5 C 0 10.777 0.223 11 0.5 11 L 15.5 11 C 15.777 11 16 10.777 16 10.5 L 16 9.5 C 16 9.223 15.777 9 15.5 9 L 0.5 9 z "
     style="opacity:1;vector-effect:none;fill:#666666;fill-opacity:1;stroke:none;stroke-width:1;stroke-linecap:butt;stroke-linejoin:miter;stroke-miterlimit:4;stroke-dasharray:none;stroke-dashoffset:0;stroke-opacity:1;marker:none;font-variant-east_asian:normal" />
  <path
     id="path844"
     d="M 0.5 1 C 0.223 1 0 1.223 0 1.5 L 0 2.5 C 0 2.777 0.223 3 0.5 3 L 7.5 3 C 7.777 3 8 2.777 8 2.5 L 8 1.5 C 8 1.223 7.777 1 7.5 1 L 0.5 1 z M 0.5 5 C 0.223 5 0 5.2230001 0 5.5 L 0 6.5 C 0 6.777 0.223 7 0.5 7 L 7.5 7 C 7.777 7 8 6.777 8 6.5 L 8 5.5 C 8 5.2230001 7.777 5 7.5 5 L 0.5 5 z M 0.5 13 C 0.223 13 0 13.223 0 13.5 L 0 14.5 C 0 14.777 0.223 15 0.5 15 L 7.5 15 C 7.777 15 8 14.777 8 14.5 L 8 13.5 C 8 13.223 7.777 13 7.5 13 L 0.5 13 z "
     style="opacity:0.5;vector-effect:none;fill:#555761;fill-opacity:1;stroke:none;stroke-width:1;stroke-linecap:round;stroke-linejoin:round;stroke-miterlimit:4;stroke-dasharray:none;stroke-dashoffset:0;stroke-opacity:1;marker:none;font-variant-east_asian:normal;paint-order:normal" />
</svg>
